X: 427
T: Bound To Have A Little Fun
C:Old-Time
B: jims roots
M:4/4
L:1/8
Q: 1/4=100
K:G
V:1 
%Q:360
x DE |: "G"G2 G2 B3A | GAGE D2 (3DEF | GFGA BA G2 | "C"EczE c2 (3DEF|
"G"G2 GA B2 A2 | GAGE [D2D2] [DD]D | "D"D2 DD EDEF |[1 "G"G2 [GB,]G [G2B,2] (3DEF:|[2 "G"G2 GG [G2B,2] ef||
|: "G"g2ga ged2 | edBc d2d2 | "Em"[e2e2] eg e2d2 | edBc d2ef| "G"gfga ged2 |
edBc ded2 | ABBA BAG2 | "C"BcEc [c2E2] (3DEF | "G"G2GA B2BA |
GAGE [DD]D^CD | "D"D2 DD EDEF |[1 "G"G2[GB,]G [G2B,2]ef :|[2 "G"G2[GB,]G [G4B,4]||
% abcbook-tune_id 6298c2458252034ed27eb49b


% abcbook-boost 0
% abcbook-tablature 
% abcbook-transpose 
% abcbook-lastupdated 1654178373481
% abcbook-soundfonts 
% abcbook-repeats 1


